src/icons/outline/symbols/eye-hidden.svg

<svg width="24" height="24" viewBox="0 0 24 24" fill="none" xmlns="http://www.w3.org/2000/svg">
<path fill-rule="evenodd" clip-rule="evenodd" d="M20.1944 3.2188C20.4855 2.92707 20.9678 2.92707 21.2589 3.2188C21.5498 3.5105 21.5498 3.99349 21.2589 4.2852L18.5186 7.0313C20.0341 7.99701 21.3794 9.1638 22.4131 10.3106C23.1959 11.1856 23.1956 12.4933 22.4131 13.3584C20.0044 16.0041 15.999 18.8013 11.9844 18.751H11.8448C10.4497 18.751 9.06414 18.3983 7.73932 17.835L3.80475 21.7784C3.65428 21.9292 3.4641 22 3.2735 22C3.08281 22 2.89182 21.9293 2.74127 21.7784C2.45042 21.4866 2.45028 21.0036 2.74127 20.712L20.1944 3.2188ZM15.6583 9.89848C15.9694 10.4819 16.1602 11.1357 16.1602 11.8399C16.1602 14.1435 14.2934 16.0146 11.9952 16.0147C11.3891 16.0147 10.8134 15.8687 10.2823 15.6231L10.0577 15.5118L8.89362 16.6788C9.90714 17.0408 10.9408 17.2623 11.9844 17.2422C15.3436 17.3177 18.6771 15.0587 20.8751 12.795L21.2989 12.3428H21.2891C21.5498 12.0613 21.5497 11.6189 21.2891 11.3272C20.2654 10.1905 18.93 9.03362 17.4346 8.11821L15.6583 9.89848ZM11.212 14.375C11.4629 14.4555 11.734 14.5059 12.0049 14.5059C13.4703 14.5059 14.6651 13.3086 14.6651 11.8399H14.6749C14.6749 11.5582 14.6145 11.2965 14.5342 11.045L11.212 14.375Z" fill="#3C3B44"/>
<path d="M12.0049 4.91899C13.2494 4.88881 14.494 5.15024 15.6983 5.59282L14.5137 6.78032C13.6908 6.53895 12.8476 6.39761 12.0147 6.42778H11.8643C8.39177 6.4279 4.85876 8.9529 2.711 11.337C2.45031 11.6185 2.4504 12.0609 2.711 12.3526C3.62428 13.3585 4.77866 14.395 6.07331 15.25H6.06354L4.98932 16.3262C3.68469 15.431 2.51027 14.3844 1.58698 13.3584C0.804446 12.4833 0.804236 11.1756 1.58698 10.3106C3.99571 7.66496 7.98037 4.82852 12.0049 4.91899Z" fill="#3C3B44"/>
<path d="M12.0049 7.65532C12.4966 7.65532 12.9583 7.75548 13.3897 7.9063L12.1251 9.17387C12.0848 9.1738 12.0049 9.16411 12.0049 9.16411C10.5397 9.16417 9.34577 10.3615 9.34577 11.8301C9.34582 11.8692 9.35493 11.9453 9.35553 11.9502L8.09088 13.2178C7.9404 12.7753 7.83995 12.3128 7.83991 11.8301C7.83991 9.52652 9.70664 7.65538 12.0049 7.65532Z" fill="#3C3B44"/>
</svg>

<svg xmlns="http://www.w3.org/2000/svg" width="24" height="24" fill="none" viewBox="0 0 24 24"><path fill="currentColor" fill-rule="evenodd" d="M20.194 3.219a.757.757 0 0 1 1.065 0 .76.76 0 0 1 0 1.066l-2.74 2.746a19.3 19.3 0 0 1 3.894 3.28 2.27 2.27 0 0 1 0 3.047c-2.409 2.646-6.414 5.443-10.429 5.393h-.14c-1.394 0-2.78-.353-4.105-.916l-3.934 3.943a.74.74 0 0 1-.532.222.75.75 0 0 1-.532-.222.76.76 0 0 1 0-1.066zm-4.536 6.68c.311.583.502 1.237.502 1.94a4.173 4.173 0 0 1-4.165 4.176 4.1 4.1 0 0 1-1.713-.392l-.224-.111-1.164 1.167c1.013.362 2.047.583 3.09.563 3.36.076 6.693-2.183 8.891-4.447l.424-.452h-.01a.757.757 0 0 0 0-1.016 17.8 17.8 0 0 0-3.854-3.209zm-4.446 4.476c.25.08.522.13.793.13a2.67 2.67 0 0 0 2.66-2.665h.01c0-.282-.06-.543-.14-.795z" clip-rule="evenodd"/><path fill="currentColor" d="M12.005 4.919c1.244-.03 2.489.231 3.693.674L14.514 6.78c-.823-.241-1.666-.382-2.5-.352h-.15c-3.472 0-7.005 2.525-9.153 4.909a.757.757 0 0 0 0 1.016 18 18 0 0 0 3.362 2.897h-.01L4.99 16.326a19.5 19.5 0 0 1-3.402-2.968 2.27 2.27 0 0 1 0-3.047C3.996 7.665 7.98 4.829 12.005 4.919"/><path fill="currentColor" d="M12.005 7.655c.492 0 .953.1 1.385.251l-1.265 1.268c-.04 0-.12-.01-.12-.01a2.667 2.667 0 0 0-2.66 2.666c0 .04.01.115.01.12l-1.264 1.268a4.3 4.3 0 0 1-.251-1.388 4.173 4.173 0 0 1 4.165-4.175"/></svg>
